X:048
T:Irish Jig
D:Peter Wyper 78rpm 
Z:Nigel Gatherer
M:6/8
L:1/8
K:D
B|ADD FED|ADD D2B|ADD FED|CEE E2B|ADD FED|
FGA BAG|FAA ABc|dDD D2::A|dcB AGF|GFE D2A,-|A,DD EDE|
FBB B2c|dcB AGF|GFE D2A,-|A,DD EDE|FDD D2:|
<end>
<start>
